48x48/apps/com.github.burlog.plasmoid-sysmon.svg

<svg xmlns="http://www.w3.org/2000/svg" width="48" height="48" version="1">
 <circle style="fill:#17191e" cx="24" cy="24" r="19"/>
 <path style="opacity:0.2" d="M 24,5 C 12.92,5 4,13.92 4,25 4,36.08 12.92,45 24,45 35.08,45 44,36.08 44,25 44,13.92 35.08,5 24,5 Z m 0,9 A 11,11 0 0 1 35,25 11,11 0 0 1 24,36 11,11 0 0 1 13,25 11,11 0 0 1 24,14 Z"/>
 <path style="fill:#3d4cbc" d="M 24 4 C 12.92 4 4 12.92 4 24 C 4 35.08 12.92 44 24 44 C 35.08 44 44 35.08 44 24 C 44 12.92 35.08 4 24 4 z M 24 13 A 11 11 0 0 1 35 24 A 11 11 0 0 1 24 35 A 11 11 0 0 1 13 24 A 11 11 0 0 1 24 13 z"/>
 <path style="fill:#37be2d" d="M 31.539062 32 A 11 11 0 0 1 24 35 L 24 44 C 32.230523 44 39.261938 39.07314 42.337891 32 L 31.539062 32 z"/>
 <path style="opacity:0.1;fill:#f4f4f7" d="M 31.539062 32 A 11 11 0 0 1 30.300781 33 L 41.859375 33 C 42.025093 32.670425 42.190124 32.339789 42.337891 32 L 31.539062 32 z"/>
 <path style="fill:#2c83f5" d="M 34.945312 23 A 11 11 0 0 1 35 24 A 11 11 0 0 1 31.539062 32 L 42.337891 32 C 43.402816 29.551219 44 26.849477 44 24 C 44 23.664236 43.990799 23.331609 43.974609 23 L 34.945312 23 z"/>
 <path style="opacity:0.1;fill:#f4f4f7" d="M 34.953125 23 C 34.9559 23.033409 34.954429 23.06808 34.957031 23.101562 A 11 11 0 0 1 35 24 L 43.974609 24 C 43.982609 24.164502 43.982008 24.330832 43.986328 24.496094 C 43.990385 24.330504 44 24.166621 44 24 C 44 23.664236 43.990799 23.331609 43.974609 23 L 34.953125 23 z"/>
 <path style="fill:#f4f4f7;opacity:0.1" d="M 24 4 C 12.92 4 4 12.92 4 24 C 4 24.167874 4.007647 24.333141 4.0117188 24.5 C 4.2763904 13.653863 13.087874 5 24 5 C 34.912126 5 43.72361 13.653863 43.988281 24.5 C 43.992353 24.333141 44 24.167874 44 24 C 44 12.92 35.08 4 24 4 z M 34.978516 24.414062 A 11 11 0 0 1 24 35 A 11 11 0 0 1 13.021484 24.585938 A 11 11 0 0 0 13 25 A 11 11 0 0 0 24 36 A 11 11 0 0 0 35 25 A 11 11 0 0 0 34.978516 24.414062 z"/>
</svg>

<svg xmlns="http://www.w3.org/2000/svg" width="48" height="48" version="1"><circle style="fill:#17191e" cx="24" cy="24" r="19"/><path style="opacity:.2" d="M24 5C12.92 5 4 13.92 4 25s8.92 20 20 20 20-8.92 20-20S35.08 5 24 5zm0 9a11 11 0 0 1 11 11 11 11 0 0 1-11 11 11 11 0 0 1-11-11 11 11 0 0 1 11-11z"/><path style="fill:#3d4cbc" d="M24 4C12.92 4 4 12.92 4 24s8.92 20 20 20 20-8.92 20-20S35.08 4 24 4zm0 9a11 11 0 0 1 11 11 11 11 0 0 1-11 11 11 11 0 0 1-11-11 11 11 0 0 1 11-11z"/><path style="fill:#37be2d" d="M31.54 32A11 11 0 0 1 24 35v9a19.95 19.95 0 0 0 18.338-12H31.539z"/><path style="opacity:.1;fill:#f4f4f7" d="M31.54 32a11 11 0 0 1-1.24 1h11.56c.165-.33.33-.66.478-1H31.539z"/><path style="fill:#2c83f5" d="M34.945 23A11 11 0 0 1 35 24a11 11 0 0 1-3.46 8h10.798a20.002 20.002 0 0 0 1.637-9h-9.03z"/><path style="opacity:.1;fill:#f4f4f7" d="M34.953 23c.003.033.001.068.004.102A11 11 0 0 1 35 24h8.975c.008.165.007.33.011.496.004-.165.014-.33.014-.496 0-.336-.01-.668-.025-1h-9.022z"/><path style="fill:#f4f4f7;opacity:.1" d="M24 4C12.92 4 4 12.92 4 24c0 .168.008.333.012.5A19.952 19.952 0 0 1 24 5a19.952 19.952 0 0 1 19.988 19.5c.004-.167.012-.332.012-.5 0-11.08-8.92-20-20-20zm10.979 20.414A11 11 0 0 1 24 35a11 11 0 0 1-10.979-10.414A11 11 0 0 0 13 25a11 11 0 0 0 11 11 11 11 0 0 0 11-11 11 11 0 0 0-.021-.586z"/></svg>
